assets/img/tools/azure-active-directory(1).svg

<?xml version="1.0" encoding="UTF-8"?>
<svg xmlns="http://www.w3.org/2000/svg" xmlns:xlink="http://www.w3.org/1999/xlink" width="400px" height="px" viewBox="0 0 400 403" version="1.1">
<g id="surface1">
<path style=" stroke:none;fill-rule:nonzero;fill:rgb(0%,74.509804%,94.901961%);fill-opacity:1;" d="M 199.765625 0.0429688 C 200.191406 0.0429688 200.621094 0.578125 201.261719 1.539062 C 201.796875 2.390625 246.761719 56.320312 301.234375 121.359375 C 355.707031 186.394531 400.140625 239.898438 399.925781 240.21875 C 399.820312 240.539062 356.453125 276.101562 303.585938 319.136719 C 250.714844 362.175781 205.746094 398.804688 203.71875 400.515625 C 200.191406 403.398438 199.980469 403.503906 198.699219 402.222656 C 197.949219 401.476562 152.875 364.632812 98.511719 320.3125 C 44.144531 275.992188 -0.179688 239.472656 0.03125 238.9375 C 0.246094 238.402344 44.894531 185.113281 99.472656 120.398438 C 154.050781 55.679688 198.699219 2.179688 198.910156 1.324219 C 199.125 0.46875 199.445312 0.0429688 199.765625 0.0429688 Z M 199.765625 0.0429688 "/>
<path style="fill-rule:nonzero;fill:rgb(100%,100%,100%);fill-opacity:1;stroke-width:1.2357;stroke-linecap:round;stroke-linejoin:round;stroke:rgb(100%,100%,100%);stroke-opacity:1;stroke-miterlimit:4;" d="M 283.09838 483.599829 C 277.301676 481.500251 270.301744 475.501458 267.401563 469.901365 C 263.799195 462.999095 264.099088 452.201266 268.100094 443.601777 C 271.201422 437.200625 271.201422 436.999446 269.200919 435.499748 C 268.100094 434.698689 254.798761 427.298958 239.800475 419.200587 C 224.798531 411.098558 211.698346 403.998767 210.798668 403.501306 C 209.599098 402.799008 207.598595 403.501306 203.999884 405.798405 C 192.300416 413.201794 180.099908 412.400736 170.499688 403.501306 C 163.598502 397.100155 161.601656 392.60106 161.601656 383.401691 C 161.601656 374.498603 163.401012 369.900748 169.098971 364.198236 C 176.80109 356.498565 187.09984 353.901527 196.999952 357.200863 C 202.401676 359.000501 202.500421 359.000501 205.901642 356.399805 C 209.89899 353.400408 241.998468 324.101423 257.501451 309.400722 L 268.198839 299.199115 L 264.998766 292.501682 C 258.499874 279.000739 261.798692 264.000098 273.198268 254.99825 C 279.400924 250.100455 284.001715 248.600756 292.899747 248.600756 C 313.698395 248.600756 328.199298 270.401249 320.398434 289.900986 C 318.299186 295.2999 318.299186 295.39866 320.299688 298.701654 C 322.000299 301.598633 350.899703 336.501368 366.201539 354.300227 C 368.900572 357.398384 371.899498 359.90032 372.901578 359.90032 C 373.900001 359.90032 377.301222 358.901741 380.501295 357.698324 C 395.400836 351.798291 411.10131 358.400622 417.300309 373.200084 C 421.301314 382.699393 417.801349 395.501696 409.298297 403.201366 C 403.300445 408.60028 398.900802 410.301158 390.89879 410.301158 C 385.299576 410.301158 383.200328 409.701279 377.301222 406.500703 C 372.901578 404.101185 369.500357 402.901427 368.09964 403.300127 C 365.700499 403.900006 328.799083 429.201015 320.599581 435.799688 C 315.600152 439.900082 315.201515 441.399781 317.801803 447.500992 C 320.299688 453.499786 319.999796 462.900334 317.19836 468.800367 C 314.100689 475.300279 306.39857 481.800191 299.698531 483.801008 C 292.899747 485.699407 288.799996 485.699407 283.09838 483.599829 Z M 284.79899 373.401263 L 284.79899 316.401753 L 281.598917 312.001418 C 279.799562 309.598243 278.098951 307.601084 277.799059 307.601084 C 276.500743 307.601084 211.899493 366.301472 211.899493 367.50123 C 211.899493 367.80117 212.901573 370.800567 214.101144 374.001142 C 215.300714 377.300479 216.200392 382.000753 216.101646 384.70021 C 215.999244 387.399667 215.999244 390.399064 215.999244 391.401301 C 216.101646 393.6984 237.701227 407.499282 270.100597 426.201618 C 278.998629 431.399353 282.099957 432.70153 283.200782 431.801711 C 284.499098 430.700713 284.79899 419.599288 284.79899 373.401263 Z M 312.198932 423.798443 C 354.999454 396.898976 363.001466 391.500062 363.498849 389.499245 C 363.798741 388.299486 364.201036 383.599212 364.299781 378.898938 L 364.599674 370.500627 L 342.798946 344.599739 C 319.400011 316.899213 310.798214 307.498665 308.801368 307.498665 C 308.099181 307.498665 304.599215 309.499482 301.000504 311.899 L 294.39921 316.299334 L 294.699103 373.200084 C 294.998995 424.200801 295.40129 432.800291 297.299391 432.800291 C 297.500538 432.899051 304.299322 428.798657 312.198932 423.798443 Z M 312.198932 423.798443 " transform="matrix(1.068091,0,0,1.067923,-109.98024,-177.552896)"/>
</g>
</svg>

<svg id="svg1035" xmlns="http://www.w3.org/2000/svg" viewBox="0 0 374.5 377.3" width="2481" height="2500"><style>.st0{fill:#00bef2}.st1{fill:#fff;stroke:#fff;stroke-width:1.2357;stroke-linecap:round;stroke-linejoin:round}</style><g id="layer1" transform="translate(-39.022 -78.115)"><g id="g1016" transform="translate(-63.947 -88.179)"><path id="path1008" class="st0" d="M290 166.3c.4 0 .8.5 1.4 1.4.5.8 42.6 51.3 93.6 112.2 51 60.9 92.6 111 92.4 111.3-.1.3-40.7 33.6-90.2 73.9s-91.6 74.6-93.5 76.2c-3.3 2.7-3.5 2.8-4.7 1.6-.7-.7-42.9-35.2-93.8-76.7S102.8 390.5 103 390c.2-.5 42-50.4 93.1-111s92.9-110.7 93.1-111.5c.2-.8.5-1.2.8-1.2z"/><path id="path923" class="st1" d="M283.1 483.6c-5.8-2.1-12.8-8.1-15.7-13.7-3.6-6.9-3.3-17.7.7-26.3 3.1-6.4 3.1-6.6 1.1-8.1-1.1-.8-14.4-8.2-29.4-16.3-15-8.1-28.1-15.2-29-15.7-1.2-.7-3.2 0-6.8 2.3-11.7 7.4-23.9 6.6-33.5-2.3-6.9-6.4-8.9-10.9-8.9-20.1 0-8.9 1.8-13.5 7.5-19.2 7.7-7.7 18-10.3 27.9-7 5.4 1.8 5.5 1.8 8.9-.8 4-3 36.1-32.3 51.6-47l10.7-10.2-3.2-6.7c-6.5-13.5-3.2-28.5 8.2-37.5 6.2-4.9 10.8-6.4 19.7-6.4 20.8 0 35.3 21.8 27.5 41.3-2.1 5.4-2.1 5.5-.1 8.8 1.7 2.9 30.6 37.8 45.9 55.6 2.7 3.1 5.7 5.6 6.7 5.6s4.4-1 7.6-2.2c14.9-5.9 30.6.7 36.8 15.5 4 9.5.5 22.3-8 30-6 5.4-10.4 7.1-18.4 7.1-5.6 0-7.7-.6-13.6-3.8-4.4-2.4-7.8-3.6-9.2-3.2-2.4.6-39.3 25.9-47.5 32.5-5 4.1-5.4 5.6-2.8 11.7 2.5 6 2.2 15.4-.6 21.3-3.1 6.5-10.8 13-17.5 15-6.8 1.9-10.9 1.9-16.6-.2zm1.7-110.2v-57l-3.2-4.4c-1.8-2.4-3.5-4.4-3.8-4.4-1.3 0-65.9 58.7-65.9 59.9 0 .3 1 3.3 2.2 6.5 1.2 3.3 2.1 8 2 10.7-.1 2.7-.1 5.7-.1 6.7.1 2.3 21.7 16.1 54.1 34.8 8.9 5.2 12 6.5 13.1 5.6 1.3-1.1 1.6-12.2 1.6-58.4zm27.4 50.4c42.8-26.9 50.8-32.3 51.3-34.3.3-1.2.7-5.9.8-10.6l.3-8.4-21.8-25.9c-23.4-27.7-32-37.1-34-37.1-.7 0-4.2 2-7.8 4.4l-6.6 4.4.3 56.9c.3 51 .7 59.6 2.6 59.6.2.1 7-4 14.9-9z"/></g></g></svg>
